svg/300/outlined/wounds_injuries-fill.svg

<svg xmlns="http://www.w3.org/2000/svg" width="48" height="48" viewBox="0 -960 960 960"><path d="m138.001-106.386-31.615-31.615 96.462-96.846-100-27.154 12.153-43.768 99.385 27.154L187.848-379 232-390.769l26.154 100 178.078-177.462L336.231-495 348-538.769l100.385 26.77L421.231-612 465-623.769l27.154 100.001 177.077-178.078-100-26.538 12.153-43.768 100.001 26.538-27.154-99.385 43.768-12.153 27.154 100 96.846-96.462 31.615 31.615-96.462 96.846 100 27.154-12.153 43.768-99.385-27.154 26.538 100.001-43.768 12.153-26.538-100-178.078 177.077L623.769-465 612-421.231l-100.001-27.154L538.769-348 495-336.231l-26.769-100.001-177.462 178.078 100 26.154L379-187.848l-100.385-26.538 27.154 99.385-43.768 12.153-27.154-100-96.846 96.462Z"/></svg>

<svg xmlns="http://www.w3.org/2000/svg" width="48" height="48" viewBox="0 -960 960 960"><path d="M138-106.39 106.39-138l96.46-96.85-100-27.15L115-305.77l99.39 27.15L187.85-379 232-390.77l26.15 100 178.08-177.46-100-26.77L348-538.77 448.39-512l-27.16-100L465-623.77l27.15 100 177.08-178.08-100-26.53 12.15-43.77 100 26.54L654.23-845 698-857.15l27.15 100L822-853.61 853.61-822l-96.46 96.85 100 27.15L845-654.23l-99.39-27.15 26.54 100-43.77 12.15-26.53-100-178.08 177.08 100 27.15L612-421.23l-100-27.16L538.77-348 495-336.23l-26.77-100-177.46 178.08 100 26.15L379-187.85l-100.38-26.54L305.77-115 262-102.85l-27.15-100L138-106.39Z"/></svg>
